X:1
T:Title
L:1/8
Q:1/4=80
M:4/4
K:F
V:1 treble nm="Grand Piano"
V:1
 A,D^CD E2 DE | F2 ED E2 D2 | DFEF G2 FG | A2 Gc B2 A2 | AcBA G2 G2 | FEFG A2 A2 | BGAF GEFD | %7
w: ????~???? * * * * * *|||||||
 ^CDEF E2 D2 |] %8
w: |

